dist/img/close.svg

<svg width="40" height="40" viewBox="0 0 40 40" fill="none" xmlns="http://www.w3.org/2000/svg">
<circle cx="20" cy="20" r="19" stroke="#F1EDF3" stroke-width="2"/>
<path d="M11.7047 28.2954C11.9523 28.543 12.1999 28.6668 12.5713 28.6668C12.9428 28.6668 13.1904 28.543 13.438 28.2954L19.9999 21.7335L26.5618 28.2954C26.8094 28.543 27.1809 28.6668 27.4285 28.6668C27.6761 28.6668 28.0475 28.543 28.2952 28.2954C28.7904 27.8002 28.7904 27.0573 28.2952 26.5621L21.7333 20.0002L28.2952 13.4383C28.7904 12.943 28.7904 12.2002 28.2952 11.7049C27.7999 11.2097 27.0571 11.2097 26.5618 11.7049L19.9999 18.2668L13.438 11.7049C12.9428 11.2097 12.1999 11.2097 11.7047 11.7049C11.2094 12.2002 11.2094 12.943 11.7047 13.4383L18.2666 20.0002L11.7047 26.5621C11.2094 27.0573 11.2094 27.8002 11.7047 28.2954Z" fill="#F1EDF3"/>
</svg>

<svg width="40" height="40" fill="none" xmlns="http://www.w3.org/2000/svg"><circle cx="20" cy="20" r="19" stroke="#F1EDF3" stroke-width="2"/><path d="M11.705 28.295c.247.248.495.372.866.372.372 0 .62-.124.867-.372L20 21.733l6.562 6.562c.247.248.619.372.866.372.248 0 .62-.124.867-.372a1.197 1.197 0 0 0 0-1.733L21.733 20l6.562-6.562a1.197 1.197 0 0 0 0-1.733 1.197 1.197 0 0 0-1.733 0L20 18.267l-6.562-6.562a1.197 1.197 0 0 0-1.733 0 1.197 1.197 0 0 0 0 1.733L18.267 20l-6.562 6.562a1.197 1.197 0 0 0 0 1.733Z" fill="#F1EDF3"/></svg>
